src/assets/img/icons/duotone-icons/Communication/Chat-locked.svg

<?xml version="1.0" encoding="UTF-8"?>
<svg width="24px" height="24px" viewBox="0 0 24 24" version="1.1" xmlns="http://www.w3.org/2000/svg" xmlns:xlink="http://www.w3.org/1999/xlink">
    <!-- Generator: Sketch 52.2 (67145) - http://www.bohemiancoding.com/sketch -->
    <title>Stockholm-icons / Communication / Chat-locked</title>
    <desc>Created with Sketch.</desc>
    <g id="Stockholm-icons-/-Communication-/-Chat-locked" stroke="none" stroke-width="1" fill="none" fill-rule="evenodd">
        <rect id="bound" x="0" y="0" width="24" height="24"></rect>
        <polygon id="Path-75" fill="#335EEA" opacity="0.3" points="5 15 3 21.5 9.5 19.5"></polygon>
        <path d="M16,10 L16,9.5 C16,8.11928813 14.8807119,7 13.5,7 C12.1192881,7 11,8.11928813 11,9.5 L11,10 C10.4477153,10 10,10.4477153 10,11 L10,14 C10,14.5522847 10.4477153,15 11,15 L16,15 C16.5522847,15 17,14.5522847 17,14 L17,11 C17,10.4477153 16.5522847,10 16,10 Z M13.5,21 C8.25329488,21 4,16.7467051 4,11.5 C4,6.25329488 8.25329488,2 13.5,2 C18.7467051,2 23,6.25329488 23,11.5 C23,16.7467051 18.7467051,21 13.5,21 Z M13.5,8 L13.5,8 C14.3284271,8 15,8.67157288 15,9.5 L15,10 L12,10 L12,9.5 C12,8.67157288 12.6715729,8 13.5,8 Z" id="Combined-Shape" fill="#335EEA"></path>
    </g>
</svg>

<svg width="24" height="24" viewBox="0 0 24 24" xmlns="http://www.w3.org/2000/svg"><g fill="none" fill-rule="evenodd"><path d="M0 0h24v24H0z"/><path fill="#335EEA" opacity=".3" d="M5 15l-2 6.5 6.5-2z"/><path d="M16 10v-.5a2.5 2.5 0 10-5 0v.5a1 1 0 00-1 1v3a1 1 0 001 1h5a1 1 0 001-1v-3a1 1 0 00-1-1zm-2.5 11a9.5 9.5 0 110-19 9.5 9.5 0 010 19zm0-13A1.5 1.5 0 0115 9.5v.5h-3v-.5A1.5 1.5 0 0113.5 8z" fill="#335EEA"/></g></svg>
